X:1
T:Menuets 1 und 2 BWV 1007
T:Menuets 1 & 2
T:Bach for Solo Flute (IX)
T:Johann Sebastian Bach (1685-1750)
T:Menuets I & II from Suite for Cello No. I (BWV 1007) Transcription for Flute 
T:Transcription by Felix Scharpf
T:twoflutes 2020 / Felix Scharpf / Johann_Sebastian_Bach_signature.svg-2.png
T:twoflutes 2020 / Felix Scharpf / Johann_Sebastian_Bach_signature.svg-2.png
C:J. S. Bach
Z:twoflutes 2020 / Felix Scharpf / Johann_Sebastian_Bach_signature.svg-2.png
L:1/8
Q:1/4=117
M:3/4
K:G
V:1 treble nm="Flöte" snm="Fl."
V:1
"^MENUETTO I"!mf! (Gd b2) (ab/c'/) | (ba)(gf).g.d | (egc')(.a.f.d') | (Mb4 a2) | %4
 (Af c'2) (bc'/d'/) | (c'b)(ag)(fe) | (fg/a/) (gfef) | .d2 .A2 .D2 :: (df a2) (ga/b/) | %9
 (ag)(fe)(df) | (Bd^gab)!mp!.d' | .A!mf!(d'c'b) c'2 | (^df)(ac')(ba) | (.b!mp!.e.G)!mf!(ac'b) | %14
 (ag)(fe)(.B.^d) |!mp! E3!mf! (!tenuto!e!<(!!tenuto!=d!tenuto!c) | (Bd g2) (de/=f/) | %17
 (=fd)(ec)(.C.B)!<)! |!f! (^ce a2) (ef/g/) | (ge)(fd)(.D.A) | (df)(ac')(.b.d') | %21
 (eg)(bd')(.c'.e') |!mf! !tenuto!d'!tenuto!f!tenuto!g!tenuto!B(.D.f) | g6!fine! :: %24
[K:Bb]"^MENUETTO II"[Q:1/4=110]!mp!"_meno mosso" (bab).d.e.G | F2 a2 .d2 |!mf! (g^fg).B.c.E | %27
 (DAd.g).^f.a |!p! (bab).d.e.G | F2 a2 .d2 |!mf! (g^fg).B.c.E | Dg (g2 ^f2) ::!mp! (d^fac'e'd') | %33
 (c'ba).b(ag) |!mf! (c=egbd'c') | (bag.a)(fe) |!f! .d.f(bab).d | .e.g(bab).d' | %38
 (c'e')!tenuto!d'!tenuto!b!tenuto!f!tenuto!a | .b.f.d.f .B2 |!mp! (=Bdf)_agf | %41
 (egc'.d')[Q:1/4=80] (!tenuto!d'[Q:1/4=108]e') |!mf! (Ace)gfe | %43
 (dfb.c')[Q:1/4=80] (!tenuto!c'[Q:1/4=108]d') | (^FAce).d.c | (Bdga).b.g | (.cba).g(.d.^f) | %47
 G6!D.C.! :| %48

